X:13
T: Alter Nidwaldner-Jodel  Bb (trad.)
T:Dirigenten-Notiz, Edi Gasser. 
C:Unterwalden (CH)
%%partsbox
P:ABAC
M:3/4
%Q:1/4=110
R:Naturjodel
L:1/8
K:Bb
[P:A] E>D CE cE | F>E DFB2 | A>F FA E/F/d/c/ | B>G FBD2 | 
E>D CE cE | F>E DFB2 | A>F FA E/F/d/c/ | B6 || 
[P:B] 
BA/G/ FB D/F/d/B/ | c>F FAE2 | c>F FA E/F/d/c/ | B>F FBD2 | 
BA/G/ FB D/F/d/B/ | c>F FA E2 | c>F FA E/F/d/c/ | B6 || 
[P:C] Ec Ac E/G/F/E/ | DB FB DF/D/ | EA FA E/F/d/c/ | B>F FBD2 | 
Ec Ac E/G/F/E/ | DB FB DF/D/ | EA FA E/F/d/c/ | B6 |] 
W:
%W: Parts: A-B-A-C
W:
W:Dieser alte Nidwaldner-Juiz ist einer der wenigen dreiteiligen Jodel, der als
W:solcher auf uns überliefert worden ist. Eigentümlich an dieser Melodie die Tatsache,
W:dass sie mit der Dominante und nicht mit der Tonika beginnt, eine äusserste
W:Seltenheit unter den tradierten Jodelmelodien.
W:  (nach Heinrich Leuthold)
W:
W: UJV-Naturjodelsammlung: Code-Nr: 00-25
W:http://www.naturjodler.ch/tradition-3.htm  (with AUDIO)
%April 24, 2018

